X:14327
T:Road to Cashel, The
T:Chestnut Tree, The
C:Charlie Lennon
R:reel
D:Dervish: The Boys of Sligo
D:Kevin Burke: Up Close
Z:id:hn-reel-326
M:C|
K:Edor
G|:FE~E2 ~E3G|FE~E2 DFAd|FE~E2 ~E3G|1 FDFA dBAG:|2 FDFA BdAF||
~B3e f2ec|defg gfed|Bege f2ec|dBAF FEFA|
~B3e f2ec|defg gfef|bf~f2 af~f2|dfbf edBA||
